X:69
T:Drowsy Maggie
R:reel
S:https://thesession.org/tunes/27
M:4/4
L:1/8
Z:Jeremy
K:Edor
|:E2BE dEBE|E2BE AFDF|E2BE dEBE|BABc dAFD:|
d2fd c2ec|defg afge|d2fd c2ec|BABc dAFA|
d2fd c2ec|defg afge|afge fdec|BABc dAFD|

